html/dist/img/availability.svg

<svg width="65" height="65" viewBox="0 0 65 65" fill="none" xmlns="http://www.w3.org/2000/svg">
<path d="M9.75006 0C6.16618 0 3.25006 2.91484 3.25006 6.5C3.25006 10.0852 6.16618 13 9.75006 13C13.334 13 16.2501 10.0852 16.2501 6.5C16.2501 2.91484 13.334 0 9.75006 0ZM9.75006 10.8329C7.36081 10.8329 5.41715 8.88926 5.41715 6.5C5.41715 4.11074 7.36081 2.16709 9.75006 2.16709C12.1393 2.16709 14.083 4.11074 14.083 6.5C14.083 8.88926 12.1406 10.8329 9.75006 10.8329Z" fill="#7C7C7D"/>
<path d="M14.0855 8.66708H14.0589C13.7199 8.66708 13.3987 8.82578 13.1943 9.09746C12.3615 10.2007 11.1059 10.8342 9.75006 10.8342C8.3942 10.8342 7.1399 10.2019 6.30582 9.09746C6.10143 8.82705 5.75358 8.66708 5.41461 8.66708C2.42867 8.66708 6.10352e-05 11.0957 6.10352e-05 14.0816V18.4171C6.10352e-05 19.015 0.485022 19.5 1.08297 19.5H18.4159C19.0138 19.5 19.4988 19.015 19.4988 18.4171V14.0816C19.5001 11.0957 17.0714 8.66708 14.0855 8.66708ZM17.333 17.3329H2.16715V14.0804C2.16715 12.4503 3.37448 11.097 4.96266 10.8672C6.1941 12.2294 7.90924 13 9.75006 13C11.5922 13 13.3073 12.2281 14.54 10.8646C16.1168 11.0868 17.333 12.4452 17.333 14.0804V17.3329Z" fill="#7C7C7D"/>
<path d="M55.2501 0C51.6662 0 48.7501 2.91484 48.7501 6.5C48.7501 10.0852 51.6662 13 55.2501 13C58.834 13 61.7501 10.0852 61.7501 6.5C61.7501 2.91484 58.834 0 55.2501 0ZM55.2501 10.8329C52.8595 10.8329 50.9172 8.88926 50.9172 6.5C50.9172 4.11074 52.8608 2.16709 55.2501 2.16709C57.6406 2.16709 59.583 4.11074 59.583 6.5C59.583 8.88926 57.6406 10.8329 55.2501 10.8329Z" fill="#7C7C7D"/>
<path d="M59.5855 8.66708H59.5588C59.2199 8.66708 58.8987 8.82578 58.6943 9.09746C57.8615 10.2007 56.6059 10.8342 55.2501 10.8342C53.8955 10.8342 52.6386 10.2019 51.8058 9.09746C51.6014 8.82705 51.2536 8.66708 50.9146 8.66708C47.9287 8.66708 45.5001 11.0957 45.5001 14.0816V18.4171C45.5001 19.015 45.985 19.5 46.583 19.5H63.9159C64.5138 19.5 64.9988 19.015 64.9988 18.4171V14.0816C65.0001 11.0957 62.5714 8.66708 59.5855 8.66708ZM62.833 17.3329H47.6672V14.0804C47.6672 12.4503 48.8745 11.097 50.4627 10.8672C51.6954 12.2294 53.4105 12.9987 55.2513 12.9987C57.0934 12.9987 58.8086 12.2268 60.0413 10.8634C61.618 11.0855 62.8342 12.4439 62.8342 14.0791V17.3329H62.833Z" fill="#7C7C7D"/>
<path d="M9.75006 45.5C6.16618 45.5 3.25006 48.4148 3.25006 52C3.25006 55.5851 6.16618 58.5 9.75006 58.5C13.334 58.5 16.2501 55.5851 16.2501 52C16.2501 48.4148 13.334 45.5 9.75006 45.5ZM9.75006 56.3329C7.36081 56.3329 5.41715 54.3892 5.41715 52C5.41715 49.6094 7.36081 47.6671 9.75006 47.6671C12.1393 47.6671 14.083 49.6107 14.083 52C14.083 54.3892 12.1406 56.3329 9.75006 56.3329Z" fill="#7C7C7D"/>
<path d="M14.0855 54.1671H14.0589C13.7199 54.1671 13.3987 54.3258 13.1943 54.5975C12.3615 55.7019 11.1059 56.3342 9.75006 56.3342C8.3942 56.3342 7.13864 55.7019 6.30582 54.5975C6.10143 54.327 5.75358 54.1671 5.41461 54.1671C2.42867 54.1671 6.10352e-05 56.5957 6.10352e-05 59.5816V63.9171C6.10352e-05 64.515 0.485022 65 1.08297 65H18.4159C19.0138 65 19.4988 64.515 19.4988 63.9171V59.5816C19.5001 56.5957 17.0714 54.1671 14.0855 54.1671ZM17.333 62.8329H2.16715V59.5804C2.16715 57.9503 3.37448 56.597 4.96266 56.3672C6.19537 57.7294 7.91051 58.4987 9.75133 58.4987C11.5934 58.4987 13.3086 57.7269 14.5413 56.3634C16.118 56.5855 17.3342 57.9439 17.3342 59.5791V62.8329H17.333Z" fill="#7C7C7D"/>
<path d="M55.2501 45.5C51.6662 45.5 48.7501 48.4148 48.7501 52C48.7501 55.5851 51.6662 58.5 55.2501 58.5C58.834 58.5 61.7501 55.5851 61.7501 52C61.7501 48.4148 58.834 45.5 55.2501 45.5ZM55.2501 56.3329C52.8595 56.3329 50.9172 54.3892 50.9172 52C50.9172 49.6094 52.8608 47.6671 55.2501 47.6671C57.6406 47.6671 59.583 49.6107 59.583 52C59.583 54.3892 57.6406 56.3329 55.2501 56.3329Z" fill="#7C7C7D"/>
<path d="M59.5855 54.1671H59.5588C59.2199 54.1671 58.8987 54.3258 58.6943 54.5975C57.8615 55.7019 56.6059 56.3342 55.2501 56.3342C53.8955 56.3342 52.6386 55.7019 51.8058 54.5975C51.6014 54.327 51.2536 54.1671 50.9146 54.1671C47.9287 54.1671 45.5001 56.5957 45.5001 59.5816V63.9171C45.5001 64.515 45.985 65 46.583 65H63.9159C64.5138 65 64.9988 64.515 64.9988 63.9171V59.5816C65.0001 56.5957 62.5714 54.1671 59.5855 54.1671ZM62.833 62.8329H47.6672V59.5804C47.6672 57.9503 48.8745 56.597 50.4627 56.3672C51.6954 57.7294 53.4105 58.4987 55.2513 58.4987C57.0934 58.4987 58.8086 57.7269 60.0413 56.3634C61.618 56.5855 62.8342 57.9439 62.8342 59.5791V62.8329H62.833Z" fill="#7C7C7D"/>
<path d="M50.4525 5.41075C49.5194 4.79248 48.5469 4.21612 47.5618 3.69942C47.0324 3.42266 46.3773 3.62579 46.0993 4.15518C45.8225 4.68457 46.0269 5.33965 46.5563 5.61768C47.4767 6.10137 48.3844 6.63838 49.2553 7.21602C49.4394 7.33789 49.6476 7.39629 49.8533 7.39629C50.2037 7.39629 50.5477 7.22618 50.7572 6.9126C51.086 6.41368 50.9502 5.74082 50.4525 5.41075Z" fill="#7C7C7D"/>
<path d="M41.7689 1.34316C39.7744 0.750284 37.7102 0.349112 35.632 0.149795C35.0378 0.0964751 34.5059 0.529385 34.45 1.1248C34.3929 1.71894 34.8296 2.2496 35.425 2.30673C37.3636 2.49335 39.2907 2.86786 41.1519 3.42011C41.2547 3.45058 41.3588 3.46581 41.4604 3.46581C41.9263 3.46581 42.3579 3.15985 42.4989 2.6914C42.669 2.1163 42.3427 1.51327 41.7689 1.34316Z" fill="#7C7C7D"/>
<path d="M29.3808 0.148521C27.3026 0.346568 25.2383 0.74774 23.2426 1.34061C22.6701 1.51073 22.3425 2.11376 22.5126 2.68758C22.6523 3.15858 23.0839 3.46327 23.5511 3.46327C23.6527 3.46327 23.7568 3.44803 23.8609 3.41756C25.722 2.86532 27.6479 2.48954 29.5877 2.30545C30.1819 2.24959 30.6186 1.7202 30.5628 1.12479C30.5069 0.52938 29.9775 0.0926615 29.3808 0.148521Z" fill="#7C7C7D"/>
<path d="M18.9021 4.15391C18.6254 3.62452 17.969 3.42012 17.4396 3.69815C16.4545 4.21485 15.4807 4.79121 14.5476 5.40948C14.0487 5.73955 13.9129 6.41241 14.2442 6.91133C14.4524 7.22491 14.7965 7.39502 15.1481 7.39502C15.3538 7.39502 15.562 7.33662 15.7461 7.21475C16.6157 6.63584 17.5247 6.09883 18.4451 5.61641C18.9758 5.33965 19.1789 4.68457 18.9021 4.15391Z" fill="#7C7C7D"/>
<path d="M61.4416 44.7802C60.8995 44.525 60.2558 44.7624 60.0019 45.3032C59.5627 46.2452 59.0676 47.1771 58.5305 48.0721C58.2233 48.5862 58.3896 49.2502 58.9025 49.5587C59.0764 49.6641 59.2681 49.7136 59.4586 49.7136C59.8267 49.7136 60.186 49.5257 60.3866 49.1867C60.9617 48.2282 61.4924 47.2304 61.9634 46.2198C62.2185 45.679 61.9837 45.0341 61.4416 44.7802Z" fill="#7C7C7D"/>
<path d="M64.8528 29.4011C64.7969 28.8057 64.2701 28.374 63.6721 28.4248C63.0767 28.4807 62.64 29.0101 62.6959 29.6055C62.7885 30.5627 62.833 31.5364 62.833 32.5C62.833 34.2228 62.687 35.9506 62.4001 37.6365C62.2998 38.2256 62.6971 38.7854 63.2862 38.887C63.3471 38.8972 63.4081 38.9022 63.469 38.9022C63.987 38.9022 64.4453 38.5303 64.5354 38.0021C64.8439 36.1969 65.0001 34.3459 65.0001 32.5013C65.0001 31.4679 64.9505 30.4243 64.8528 29.4011Z" fill="#7C7C7D"/>
<path d="M62.9028 21.0069C62.508 19.9659 62.0535 18.93 61.5508 17.9296C61.2803 17.3951 60.6303 17.1793 60.0959 17.4484C59.5614 17.7176 59.3456 18.3676 59.6135 18.9033C60.0832 19.8364 60.5072 20.8025 60.8754 21.7737C61.0391 22.2054 61.4505 22.4732 61.8885 22.4732C62.0167 22.4732 62.1449 22.4504 62.2731 22.4034C62.833 22.1914 63.1148 21.5668 62.9028 21.0069Z" fill="#7C7C7D"/>
<path d="M4.90551 17.4497C4.36977 17.1793 3.71977 17.3964 3.45063 17.9309C2.9479 18.9312 2.4934 19.9659 2.09858 21.0082C1.88657 21.5681 2.1684 22.1939 2.72827 22.406C2.85522 22.4542 2.98344 22.4758 3.11167 22.4758C3.54965 22.4758 3.96098 22.2079 4.12602 21.7763C4.49419 20.8051 4.91948 19.8377 5.38794 18.9059C5.65581 18.3688 5.43999 17.7176 4.90551 17.4497Z" fill="#7C7C7D"/>
<path d="M2.59879 37.6289C2.31188 35.9468 2.16588 34.2202 2.16588 32.5C2.16588 31.5314 2.21285 30.5551 2.30299 29.6004C2.36012 29.005 1.9234 28.4756 1.32799 28.4185C0.737659 28.3677 0.203186 28.7981 0.147327 29.3935C0.0495728 30.418 6.10352e-05 31.4615 6.10352e-05 32.5C6.10352e-05 34.3434 0.156213 36.1905 0.46217 37.992C0.553577 38.5201 1.01061 38.8934 1.52858 38.8934C1.58951 38.8934 1.65045 38.8895 1.71139 38.8781C2.30299 38.7778 2.70035 38.218 2.59879 37.6289Z" fill="#7C7C7D"/>
<path d="M6.46705 48.0733C5.9313 47.1783 5.43619 46.2465 4.99566 45.3045C4.74175 44.7624 4.0981 44.5263 3.55601 44.7814C3.01392 45.0353 2.78033 45.679 3.03296 46.2211C3.50523 47.2316 4.03462 48.2295 4.61099 49.188C4.81412 49.5269 5.17339 49.7148 5.54156 49.7148C5.73072 49.7148 5.92242 49.6653 6.09507 49.5599C6.60796 49.2515 6.77554 48.5862 6.46705 48.0733Z" fill="#7C7C7D"/>
<path d="M47.6633 28.1671H28.1684C26.9725 28.1671 26.0001 29.1395 26.0001 30.3354V43.3316C26.0001 44.5275 26.9725 45.5 28.1697 45.5H38.5519L44.7345 51.6826C44.9415 51.8895 45.2182 52 45.5001 52C45.6397 52 45.7806 51.9733 45.9152 51.9175C46.3189 51.7499 46.5842 51.3538 46.5842 50.9158V45.5H47.6659C48.8618 45.5 49.8342 44.5275 49.8342 43.3304V30.3354C49.833 29.1395 48.8605 28.1671 47.6633 28.1671ZM47.6646 43.3329H45.5001C44.9021 43.3329 44.4171 43.8179 44.4171 44.4158V48.3006L39.7669 43.6503C39.5637 43.4472 39.2882 43.3329 39.0013 43.3329L28.1684 43.3291V30.3354L28.171 30.3329L47.6684 30.3354L47.6646 43.3329Z" fill="#7C7C7D"/>
<path d="M35.7475 21.6671H16.2526C15.0567 21.6671 14.0842 22.6396 14.0842 23.8355V36.8317C14.0842 38.0276 15.0567 39 16.2526 39H17.3342V44.4171C17.3342 44.8551 17.5983 45.2499 18.0033 45.4188C18.1366 45.4734 18.2775 45.5013 18.4171 45.5013C18.699 45.5013 18.9757 45.3909 19.1827 45.1839L25.3653 39.0013H27.083C27.6809 39.0013 28.1659 38.5163 28.1659 37.9184V30.3367L36.8329 30.3342C37.4309 30.3342 37.9159 29.8492 37.9159 29.2513V23.8367C37.9171 22.6396 36.9447 21.6671 35.7475 21.6671ZM35.75 28.1671H28.1684C26.9725 28.1671 26 29.1396 26 30.3355V36.8329H24.9171C24.6302 36.8329 24.3535 36.9472 24.1516 37.1503L19.5013 41.8006V37.9159C19.5013 37.3179 19.0164 36.8329 18.4184 36.8329L16.25 36.8317L16.2526 23.8342L35.75 23.8367V28.1671Z" fill="#7C7C7D"/>
<path d="M37.9171 33.5829H31.4171C30.8192 33.5829 30.3342 34.0679 30.3342 34.6658C30.3342 35.2638 30.8192 35.7487 31.4171 35.7487H37.9171C38.5151 35.7487 39 35.2638 39 34.6658C39 34.0691 38.5151 33.5829 37.9171 33.5829Z" fill="#E30613"/>
<path d="M44.4171 33.5829H42.2501C41.6521 33.5829 41.1671 34.0679 41.1671 34.6658C41.1671 35.2638 41.6521 35.7487 42.2501 35.7487H44.4171C45.0151 35.7487 45.5001 35.2638 45.5001 34.6658C45.5001 34.0691 45.0151 33.5829 44.4171 33.5829Z" fill="#E30613"/>
<path d="M44.4171 37.9171H37.9171C37.3192 37.9171 36.8342 38.402 36.8342 39C36.8342 39.5979 37.3192 40.0829 37.9171 40.0829H44.4171C45.0151 40.0829 45.5 39.5979 45.5 39C45.5 38.402 45.0151 37.9171 44.4171 37.9171Z" fill="#E30613"/>
<path d="M33.583 37.9171H31.4159C30.8179 37.9171 30.333 38.402 30.333 39C30.333 39.5979 30.8179 40.0829 31.4159 40.0829H33.583C34.1809 40.0829 34.6659 39.5979 34.6659 39C34.6659 38.402 34.1809 37.9171 33.583 37.9171Z" fill="#E30613"/>
<path d="M21.7738 60.8753C20.8026 60.5072 19.8378 60.0831 18.9034 59.6134C18.3689 59.3455 17.7176 59.5601 17.4485 60.0946C17.1794 60.629 17.3952 61.2803 17.9309 61.5494C18.9313 62.0534 19.9672 62.5079 21.0083 62.9015C21.1352 62.9497 21.2634 62.9713 21.3917 62.9713C21.8297 62.9713 22.241 62.7034 22.4048 62.2718C22.6155 61.7119 22.3337 61.0873 21.7738 60.8753Z" fill="#7C7C7D"/>
<path d="M37.3408 63.5642C37.2697 62.97 36.7327 62.546 36.136 62.6171C33.7378 62.904 31.2559 62.904 28.8476 62.6146C28.2522 62.5435 27.7139 62.9662 27.6428 63.5604C27.573 64.1545 27.9958 64.6941 28.5899 64.7651C29.881 64.92 31.1962 64.9987 32.5013 64.9987C33.8026 64.9987 35.1127 64.9213 36.395 64.7677C36.9891 64.6979 37.4119 64.1583 37.3408 63.5642Z" fill="#7C7C7D"/>
<path d="M47.5504 60.0945C47.2799 59.5601 46.63 59.3442 46.0955 59.6134C45.1611 60.0831 44.195 60.5084 43.2251 60.8753C42.6665 61.086 42.3834 61.7119 42.5954 62.2718C42.7604 62.7034 43.1717 62.9713 43.6097 62.9713C43.738 62.9713 43.8662 62.9484 43.9919 62.9015C45.0316 62.5066 46.0675 62.0521 47.0679 61.5494C47.6037 61.2803 47.8195 60.6303 47.5504 60.0945Z" fill="#7C7C7D"/>
</svg>

<svg width="65" height="65" viewBox="0 0 65 65" fill="none" xmlns="http://www.w3.org/2000/svg"><path d="M9.75 0a6.507 6.507 0 00-6.5 6.5c0 3.585 2.916 6.5 6.5 6.5s6.5-2.915 6.5-6.5S13.334 0 9.75 0zm0 10.833A4.338 4.338 0 015.417 6.5 4.338 4.338 0 019.75 2.167 4.338 4.338 0 0114.083 6.5a4.337 4.337 0 01-4.333 4.333z" fill="#7C7C7D"/><path d="M14.085 8.667h-.026c-.34 0-.66.159-.865.43-.833 1.104-2.088 1.737-3.444 1.737-1.356 0-2.61-.632-3.444-1.737a1.138 1.138 0 00-.891-.43A5.42 5.42 0 000 14.082v4.335c0 .598.485 1.083 1.083 1.083h17.333c.598 0 1.083-.485 1.083-1.083v-4.335a5.418 5.418 0 00-5.413-5.415zm3.248 8.666H2.167V14.08a3.253 3.253 0 012.796-3.213A6.415 6.415 0 009.75 13a6.419 6.419 0 004.79-2.135 3.253 3.253 0 012.793 3.215v3.253zM55.25 0a6.507 6.507 0 00-6.5 6.5c0 3.585 2.916 6.5 6.5 6.5s6.5-2.915 6.5-6.5S58.834 0 55.25 0zm0 10.833A4.337 4.337 0 0150.917 6.5a4.338 4.338 0 014.333-4.333A4.337 4.337 0 0159.583 6.5a4.337 4.337 0 01-4.333 4.333z" fill="#7C7C7D"/><path d="M59.586 8.667h-.027c-.34 0-.66.159-.865.43-.833 1.104-2.088 1.737-3.444 1.737-1.355 0-2.611-.632-3.444-1.737a1.138 1.138 0 00-.891-.43 5.42 5.42 0 00-5.415 5.415v4.335c0 .598.485 1.083 1.083 1.083h17.333c.598 0 1.083-.485 1.083-1.083v-4.335a5.418 5.418 0 00-5.413-5.415zm3.247 8.666H47.667V14.08a3.253 3.253 0 012.796-3.213A6.419 6.419 0 0055.25 13a6.419 6.419 0 004.79-2.136 3.253 3.253 0 012.793 3.216v3.254h-.001zM9.75 45.5a6.507 6.507 0 00-6.5 6.5c0 3.585 2.916 6.5 6.5 6.5s6.5-2.915 6.5-6.5-2.916-6.5-6.5-6.5zm0 10.833A4.338 4.338 0 015.417 52a4.337 4.337 0 014.333-4.333A4.338 4.338 0 0114.083 52a4.337 4.337 0 01-4.333 4.333z" fill="#7C7C7D"/><path d="M14.085 54.167h-.026c-.34 0-.66.159-.865.43-.833 1.105-2.088 1.737-3.444 1.737-1.356 0-2.611-.632-3.444-1.737a1.137 1.137 0 00-.891-.43A5.42 5.42 0 000 59.582v4.335C0 64.515.485 65 1.083 65h17.333c.598 0 1.083-.485 1.083-1.083v-4.335a5.418 5.418 0 00-5.413-5.415zm3.248 8.666H2.167V59.58a3.253 3.253 0 012.796-3.213A6.419 6.419 0 009.75 58.5a6.419 6.419 0 004.79-2.136 3.253 3.253 0 012.793 3.216v3.254h-.001zM55.25 45.5a6.507 6.507 0 00-6.5 6.5c0 3.585 2.916 6.5 6.5 6.5s6.5-2.915 6.5-6.5-2.916-6.5-6.5-6.5zm0 10.833A4.337 4.337 0 0150.917 52a4.337 4.337 0 014.333-4.333A4.337 4.337 0 0159.583 52a4.337 4.337 0 01-4.333 4.333z" fill="#7C7C7D"/><path d="M59.586 54.167h-.027c-.34 0-.66.159-.865.43-.833 1.105-2.088 1.737-3.444 1.737-1.355 0-2.611-.632-3.444-1.737a1.137 1.137 0 00-.891-.43 5.42 5.42 0 00-5.415 5.415v4.335c0 .598.485 1.083 1.083 1.083h17.333c.598 0 1.083-.485 1.083-1.083v-4.335a5.418 5.418 0 00-5.413-5.415zm3.247 8.666H47.667V59.58a3.253 3.253 0 012.796-3.213A6.419 6.419 0 0055.25 58.5a6.419 6.419 0 004.79-2.136 3.253 3.253 0 012.793 3.216v3.254h-.001zM50.453 5.41a33.049 33.049 0 00-2.891-1.71 1.085 1.085 0 00-1.463.455 1.085 1.085 0 00.457 1.463c.92.483 1.828 1.02 2.7 1.598a1.086 1.086 0 001.502-.303 1.086 1.086 0 00-.306-1.502zm-8.684-4.067A32.46 32.46 0 0035.632.15a1.086 1.086 0 00-1.182.975c-.057.594.38 1.125.975 1.182 1.939.186 3.866.56 5.727 1.113.103.03.207.046.308.046a1.084 1.084 0 00.309-2.123zM29.38.149a32.39 32.39 0 00-6.137 1.192 1.084 1.084 0 00.618 2.077 30.21 30.21 0 015.727-1.113A1.084 1.084 0 0029.38.15zM18.902 4.154a1.083 1.083 0 00-1.462-.456 33.07 33.07 0 00-2.892 1.711 1.083 1.083 0 101.198 1.806 30.135 30.135 0 012.7-1.599c.53-.276.733-.931.456-1.462zm42.54 40.626a1.083 1.083 0 00-1.44.523c-.44.942-.934 1.874-1.471 2.77a1.084 1.084 0 00.928 1.64c.368 0 .727-.187.928-.526a32.356 32.356 0 001.576-2.967 1.082 1.082 0 00-.521-1.44zm3.411-15.379a1.084 1.084 0 00-2.157.204 30.703 30.703 0 01-.296 8.031 1.086 1.086 0 001.069 1.266c.518 0 .976-.372 1.066-.9a32.75 32.75 0 00.318-8.6zm-1.95-8.394a32.735 32.735 0 00-1.352-3.077 1.084 1.084 0 00-1.938.973c.47.933.894 1.9 1.262 2.87a1.084 1.084 0 002.028-.766zM4.906 17.45a1.082 1.082 0 00-1.455.48 32.419 32.419 0 00-1.352 3.078 1.084 1.084 0 002.027.768c.368-.97.793-1.938 1.262-2.87a1.086 1.086 0 00-.482-1.456zM2.599 37.629a30.6 30.6 0 01-.296-8.029 1.084 1.084 0 00-.975-1.181 1.09 1.09 0 00-1.18.974 32.813 32.813 0 00.314 8.599 1.085 1.085 0 002.137-.363zm3.868 10.444a30.895 30.895 0 01-1.471-2.769 1.084 1.084 0 00-1.963.917 32.38 32.38 0 001.578 2.967 1.083 1.083 0 001.484.372c.513-.309.68-.974.372-1.487zm41.196-19.906H28.168A2.17 2.17 0 0026 30.335v12.997a2.17 2.17 0 002.17 2.168h10.382l6.182 6.183a1.083 1.083 0 001.85-.767V45.5h1.082a2.17 2.17 0 002.168-2.17V30.335a2.173 2.173 0 00-2.17-2.168zm.002 15.166H45.5c-.598 0-1.083.485-1.083 1.083V48.3l-4.65-4.65a1.083 1.083 0 00-.766-.318l-10.833-.004V30.335l.003-.002 19.497.002-.003 12.998z" fill="#7C7C7D"/><path d="M35.748 21.667H16.253a2.17 2.17 0 00-2.169 2.168v12.997A2.17 2.17 0 0016.253 39h1.081v5.417a1.086 1.086 0 001.083 1.084c.282 0 .559-.11.766-.317L25.365 39h1.718c.598 0 1.083-.485 1.083-1.083v-7.581l8.667-.003c.598 0 1.083-.485 1.083-1.083v-5.414a2.17 2.17 0 00-2.168-2.17zm.002 6.5h-7.582A2.17 2.17 0 0026 30.335v6.498h-1.083c-.287 0-.564.114-.765.317l-4.65 4.65v-3.884c0-.598-.486-1.083-1.084-1.083l-2.168-.001.003-12.998 19.497.003v4.33z" fill="#7C7C7D"/><path d="M37.917 33.583h-6.5a1.083 1.083 0 000 2.166h6.5a1.083 1.083 0 000-2.166zm6.5 0H42.25a1.083 1.083 0 000 2.166h2.167a1.083 1.083 0 000-2.166zm0 4.334h-6.5a1.083 1.083 0 000 2.166h6.5a1.083 1.083 0 000-2.166zm-10.834 0h-2.167a1.083 1.083 0 000 2.166h2.167a1.083 1.083 0 000-2.166z" fill="#E30613"/><path d="M21.774 60.875a30.415 30.415 0 01-2.87-1.262 1.083 1.083 0 10-.973 1.936 31.9 31.9 0 003.077 1.352 1.084 1.084 0 001.397-.63 1.084 1.084 0 00-.631-1.396zm15.566 2.689a1.082 1.082 0 00-1.204-.947c-2.398.287-4.88.287-7.288-.002a1.082 1.082 0 10-.258 2.15 32.95 32.95 0 007.805.003 1.08 1.08 0 00.946-1.204zm10.21-3.47c-.27-.534-.92-.75-1.454-.48-.935.47-1.901.894-2.87 1.261a1.083 1.083 0 00.766 2.026 32.496 32.496 0 003.076-1.352c.536-.269.752-.919.482-1.455z" fill="#7C7C7D"/></svg>
